client/public/img/game/shared/particles/casings/casing_12ga_slug.svg

<?xml version="1.0" encoding="UTF-8" standalone="no"?>
<svg
   width="22"
   height="61"
   viewBox="0 0 22 61"
   fill="none"
   version="1.1"
   id="svg4"
   xmlns="http://www.w3.org/2000/svg"
   xmlns:svg="http://www.w3.org/2000/svg">
  <defs
     id="defs4" />
  <path
     d="M2.82227 53.4969V7.67188H19.6899V53.4969H2.82227Z"
     fill="#000080"
     id="path1" />
  <path
     d="M2.82227 7.67109V1.1958H19.6899V7.67109H2.82227Z"
     fill="#000075"
     id="path2" />
  <path
     d="M2.82227 53.4971H19.6899V1.19678H2.82227V53.4971Z"
     stroke="#000066"
     stroke-width="2"
     stroke-miterlimit="3.99393"
     id="path3" />
  <path
     d="M1.88086 59.2379C1.88086 59.4474 2.05066 59.6172 2.26011 59.6172H20.2528C20.4622 59.6172 20.6319 59.4474 20.6319 59.2381V58.4711C20.6319 58.2617 20.4622 58.092 20.2528 58.092H19.819V46.7358H2.69389V58.092H2.26011C2.05066 58.092 1.88086 58.2618 1.88086 58.4713V59.2379Z"
     fill="#B3B300"
     stroke="#666600"
     stroke-width="2"
     stroke-miterlimit="3.99393"
     id="path4" />
</svg>

<svg xmlns="http://www.w3.org/2000/svg" width="22" height="61" fill="none"><path fill="navy" d="M2.822 53.497V7.672H19.69v45.825z"/><path fill="#000075" d="M2.822 7.671V1.196H19.69V7.67z"/><path stroke="#006" stroke-miterlimit="3.994" stroke-width="2" d="M2.822 53.497H19.69v-52.3H2.822z"/><path fill="#B3B300" stroke="#660" stroke-miterlimit="3.994" stroke-width="2" d="M1.88 59.238c0 .21.17.38.38.38h17.993c.21 0 .379-.17.379-.38v-.767a.38.38 0 0 0-.38-.379h-.433V46.736H2.694v11.356H2.26a.38.38 0 0 0-.38.38z"/></svg>
